icons/24x24_workorder_filled.svg

<svg width="24" height="24" viewBox="0 0 24 24" fill="none" xmlns="http://www.w3.org/2000/svg">
<path fill-rule="evenodd" clip-rule="evenodd" d="M21 13.2V16C21 16.5523 21.4477 17 22 17C22.5523 17 23 17.4477 23 18C23 18.5523 22.5523 19 22 19H2C1.44772 19 1 18.5523 1 18C1 17.4477 1.44772 17 2 17C2.55228 17 3 16.5523 3 16V13.2C3 10.7166 4.57158 8.5269 6.9625 7.23263L7.92052 10.2983C8.08525 10.8254 8.64613 11.1192 9.17327 10.9545C9.70042 10.7897 9.99421 10.2289 9.82948 9.70173L8.7659 6.29827C8.60117 5.77113 8.89496 5.21025 9.42211 5.04552C9.51866 5.01535 9.61923 5 9.72038 5H14.2796C14.8319 5 15.2796 5.44772 15.2796 6C15.2796 6.10116 15.2643 6.20172 15.2341 6.29827L14.1705 9.70173C14.0058 10.2289 14.2996 10.7897 14.8267 10.9545C15.3539 11.1192 15.9147 10.8254 16.0795 10.2983L17.0375 7.23263C19.4284 8.5269 21 10.7166 21 13.2Z" />
</svg>

<svg width="24" height="24" fill="none" xmlns="http://www.w3.org/2000/svg"><path fill-rule="evenodd" clip-rule="evenodd" d="M21 13.2V16a1 1 0 0 0 1 1 1 1 0 1 1 0 2H2a1 1 0 1 1 0-2 1 1 0 0 0 1-1v-2.8c0-2.483 1.572-4.673 3.963-5.967l.958 3.065a1 1 0 0 0 1.908-.596L8.766 6.298A1 1 0 0 1 9.72 5h4.56a1 1 0 0 1 .954 1.298l-1.063 3.404a1 1 0 0 0 1.909.596l.958-3.065C19.428 8.527 21 10.717 21 13.2Z" fill="#000"/></svg>
